X:1
T:Title
%%score ( 1 2 ) { 3 | 4 }
L:1/8
Q:1/4=90
M:4/4
K:Ab
V:1 treble nm="Grand Piano, Soprano"
V:2 treble 
V:3 treble nm="Choir Pad, Live a Life of Sunshine"
V:4 bass 
V:1
 [Ac]>[Ae] [Ac]>[EB] [EA]2 E2 | [FA]>[FA] [EG]>[DF] [CE]4 | [Gd]>[Ge] [Gd]>[GB] [Ac]2 [EA]2 | %3
w: By~Alfred~T.~Goodsell * * * * *|||
 [=DA]>[DA] [DF]>[Dc] [EB]4 | [Ec]>[Ae] [Ac]>[EB] [EA]2 E2 | [FA]>[FA] [EG]>[DF] [CE]4 | %6
w: |||
 [DF]>[EG] [FA]>[FB] [Ec]2 [Ec]2 | [DB]4 [CA]4 | [CE]4 [DF]2 [DA]2 | [Cc]4- [Cc]>[CE] [DF]>[CE] | %10
w: ||||
 [DG]6 [Ee]>[Ed] | z4 B2 z2 | [CE]4 [DF]2 [DA]2 | [Cc]4- [Cc]>[CE] [DF]>[CE] | %14
w: ||||
 [DG]2 [Ed]2 [Ec]3 [DB] | [CA]8 |] %16
w: ||
V:2
 x8 | x8 | x8 | x8 | x8 | x8 | x8 | x8 | x8 | x8 | x8 | [Ec]>[Fd] [Ec]>[EA] D2- [DE]2 | x8 | x8 | %14
 x8 | x8 |] %16
V:3
 E>C E>D C2 C2 | D>D[K:bass] A,>A, A,4 | B,>B, B,>[K:treble]E E2 C2 | B,>B,[K:bass] B,>A, G,4 | %4
 A,>C[K:treble] E>D C2 C2 | D>D[K:bass] A,>A, A,4 | A,>A, D>D A,2 A,2 | G,4 A,4 | A,4 A,2 F,2 | %9
 E,2 A,2 A,>A, A,>A, | B,2 B,2 B,2 G,>B, | A,>A, A,>A, G,4 | A,4 A,2 F,2 | E,2 A,2 A,>A, A,>A, | %14
 B,2 G,2 A,3 E, | E,8 |] %16
V:4
 A,>A, A,>A, A,2 A,2 | D,>D, D,>D, A,,4 | E,>E, E,>E, A,2 A,,2 | B,,>B,, B,,>B,, E,4 | %4
 z z/ A,/ A,>A, A,2 A,2 | D,>D, D,>D, A,,4 | D,>D, D,>D, E,2 E,2 | E,4 A,,4 | A,,4 D,2 D,2 | %9
 A,,2 A,,2 A,,>A,, A,,>A,, | E,2 E,2 E,2 E,>G, | z2 C,>C, E,4 | z4 D,2 D,2 | %13
 A,,2 A,,2 A,,>A,, A,,>A,, | E,2 E,2 E,4 | A,,8 |] %16

